icons/circle/src/status/symbolic/battery-good-charging-symbolic.svg

<svg width="16" height="16" version="1.1" xmlns="http://www.w3.org/2000/svg">
 <g fill="#363636">
  <path d="m6.834 4-3.334 5h3l-0.75 3h0.41602l3.334-5h-3l0.75-3z" enable-background="new"/>
  <g fill-rule="evenodd">
   <path d="m2 3c-1.108 0-2 0.892-2 2v6c0 1.108 0.892 2 2 2h9c1.108 0 2-0.892 2-2v-6c0-1.108-0.892-2-2-2zm0 1h9c0.554 0 1 0.446 1 1v6c0 0.554-0.446 1-1 1h-9c-0.554 0-1-0.446-1-1v-6c0-0.554 0.446-1 1-1z" enable-background="new" style="paint-order:stroke fill markers"/>
   <path d="m2.5273 5c-0.2921 0-0.52734 0.24253-0.52734 0.54492v4.9102c0 0.3024 0.23524 0.54492 0.52734 0.54492h2.4414l0.25-1h-1.7188c-0.79859-1.711e-4 -1.2749-0.89013-0.83203-1.5547l2.2969-3.4453h-2.4375zm5.5039 0-0.25 1h1.2188v-0.45508c0-0.3024-0.23524-0.54492-0.52734-0.54492h-0.44141zm0.96875 4.5527-0.96484 1.4473h0.4375c0.2921 0 0.52734-0.24253 0.52734-0.54492v-0.90234z" enable-background="new" style="paint-order:stroke fill markers"/>
   <path d="m14 6v4a2 2 0 0 0 2-2 2 2 0 0 0-2-2z" enable-background="new" style="paint-order:stroke fill markers"/>
  </g>
 </g>
</svg>

<svg width="16" height="16" xmlns="http://www.w3.org/2000/svg"><g fill="#363636"><path d="M6.834 4L3.5 9h3l-.75 3h.416L9.5 7h-3l.75-3z"/><g fill-rule="evenodd" paint-order="stroke fill markers"><path d="M2 3C.892 3 0 3.892 0 5v6c0 1.108.892 2 2 2h9c1.108 0 2-.892 2-2V5c0-1.108-.892-2-2-2zm0 1h9c.554 0 1 .446 1 1v6c0 .554-.446 1-1 1H2c-.554 0-1-.446-1-1V5c0-.554.446-1 1-1z"/><path d="M2.527 5A.535.535 0 002 5.545v4.91c0 .303.235.545.527.545H4.97l.25-1h-1.72a1 1 0 01-.831-1.555L4.965 5H2.527zm5.504 0l-.25 1H9v-.455A.535.535 0 008.473 5H8.03zM9 9.553L8.035 11h.438A.535.535 0 009 10.455v-.902zM14 6v4a2 2 0 002-2 2 2 0 00-2-2z"/></g></g></svg>
